Assets/CustomLUTs/Resources/DefaultLUT.cube
TITLE "Custom LUT"
LUT_3D_SIZE 9
# S-Log3/Sony S-Gamut3.cine (Venice) -> S-Log3/Sony S-Gamut3.cine, CineEI Shift 0.00, Black Level 3.54% IRE, Input 109% -> Output 109% - Created with LUTCalc v4.03 by Ben Turley January 2022
0.06256109 0.06256109 0.06256109
0.13208069 0.06256109 0.06256109
0.25314743 0.06256109 0.06256109
0.37656942 0.06256109 0.06256109
0.50105277 0.06256109 0.06256109
0.62588468 0.06256109 0.06256109
0.75083011 0.06256109 0.06256109
0.87581240 0.06256109 0.06256109
1.00080666 0.06256109 0.06256109
0.06256109 0.12293297 0.06256109
0.11368032 0.12171054 0.06256109
0.24623365 0.11977541 0.06256109
0.37434212 0.11374033 0.06256109
0.50033190 0.09513279 0.06256109
0.62565104 0.06256109 0.06256109
0.75075435 0.06256109 0.06256109
0.87578783 0.06256109 0.06256109
1.00079869 0.06256109 0.06256109
0.06256109 0.25100321 0.06256109
0.08455230 0.25054829 0.06256109
0.23432453 0.24982431 0.06256109
0.37072229 0.24753561 0.06256109
0.49918110 0.24016654 0.06256109
0.62528017 0.21377174 0.06256109
0.75063431 0.06350547 0.06256109
0.87574892 0.06256109 0.06256109
1.00078607 0.06256109 0.06256109
0.06256109 0.37710958 0.06256109
0.06256109 0.37696370 0.06256109
0.18595958 0.37673237 0.06256109
0.35860962 0.37600783 0.06256109
0.49551352 0.37374365 0.06256109
0.62411551 0.36645701 0.06256109
0.75025911 0.34040604 0.06256109
0.87562750 0.15006870 0.06256109
1.00074672 0.06256109 0.06256109
0.06256109 0.50246606 0.06256109
0.06256109 0.50241892 0.06256109
0.06256109 0.50234425 0.06256109
0.30985240 0.50211106 0.06256109
0.48337676 0.50138899 0.06256109
0.62044573 0.49913266 0.06256109
0.74909423 0.49187236 0.06256109
0.87525228 0.46593098 0.06256109
1.00062529 0.28062000 0.06256109
0.06256109 0.62758143 0.06256109
0.06256109 0.62756616 0.06256109
0.06256109 0.62754198 0.06256109
0.06256109 0.62746654 0.06256109
0.43449092 0.62723361 0.06256109
0.60830113 0.62651234 0.06256109
0.74542373 0.62425853 0.06256109
0.87408733 0.61700674 0.06256109
1.00025006 0.59110070 0.06256109
0.06256109 0.75261882 0.06256109
0.06256109 0.75261387 0.06256109
0.06256109 0.75260603 0.06256109
0.06256109 0.75258159 0.06256109
0.06256109 0.75250617 0.06256109
0.55937342 0.75227332 0.06256109
0.73327659 0.75155231 0.06256109
0.87041659 0.74929933 0.06256109
0.99908509 0.74205028 0.06256109
0.06256109 0.87763095 0.21329519
0.06256109 0.87762934 0.21219821
0.06256109 0.87762680 0.21043922
0.06256109 0.87761887 0.20476731
0.06256109 0.87759443 0.18519713
0.06256109 0.87751902 0.09367060
0.68433529 0.87728620 0.06256109
0.85826863 0.87656527 0.06256109
0.99541428 0.87431255 0.06256109
0.06256109 1.00263488 0.35540615
0.06256109 1.00263436 0.35510227
0.06256109 1.00263354 0.35461952
0.06256109 1.00263097 0.35310033
0.06256109 1.00262304 0.34828103
0.06256109 1.00259859 0.33195042
0.06256109 1.00252319 0.25750151
0.80932292 1.00229038 0.06256109
0.98326605 1.00156948 0.06256109
0.06256109 0.06256109 0.13566549
0.14126445 0.06256109 0.13357277
0.25644347 0.06256109 0.13025996
0.37766459 0.06256109 0.11992829
0.50141081 0.06256109 0.08807337
0.62600111 0.06256109 0.06256109
0.75086790 0.06256109 0.06256109
0.87582466 0.06256109 0.06256109
1.00081064 0.06256109 0.06256109
0.06256109 0.12797744 0.13606731
0.12286408 0.12675501 0.13397459
0.24973818 0.12481989 0.13066178
0.37545937 0.11878480 0.12033011
0.50069228 0.10017726 0.08847519
0.62576771 0.06256109 0.06256109
0.75079217 0.06256109 0.06256109
0.87580010 0.06256109 0.06256109
1.00080267 0.06256109 0.06256109
0.06256109 0.25286102 0.13670340
0.09373606 0.25241366 0.13461068
0.23821903 0.25170178 0.13129787
0.37187638 0.24945186 0.12096619
0.49954523 0.24221310 0.08911127
0.62539723 0.21636124 0.06256109
0.75067217 0.06854994 0.06256109
0.87576119 0.06256109 0.06256109
1.00079005 0.06256109 0.06256109
0.06256109 0.37770955 0.13868717
0.06256109 0.37756446 0.13659444
0.19192415 0.37733438 0.13328163
0.35989599 0.37661377 0.12294996
0.49588986 0.37436204 0.09109504
0.62423381 0.36711723 0.06256109
0.75029710 0.34124022 0.06256109
0.87563978 0.15511318 0.06256109
1.00075070 0.06256109 0.06256109
0.06256109 0.50266038 0.14480356
0.06256109 0.50261332 0.14271084
0.06256109 0.50253879 0.13939803
0.31184182 0.50230601 0.12906636
0.48379649 0.50158521 0.09721144
0.62056800 0.49933290 0.06256109
0.74913262 0.49208612 0.06256109
0.87526460 0.46620094 0.06256109
1.00062927 0.28204557 0.06256109
0.06256109 0.62764443 0.16366182
0.06256109 0.62762917 0.16156910
0.06256109 0.62760500 0.15825629
0.06256109 0.62752960 0.14792461
0.43514218 0.62729680 0.11606970
0.60843753 0.62657594 0.06256109
0.74546341 0.62432344 0.06256109
0.87409978 0.61707603 0.06256109
1.00025406 0.59118820 0.06256109
0.06256109 0.75263925 0.20367183
0.06256109 0.75263430 0.20247498
0.06256109 0.75262647 0.20055358
0.06256109 0.75260202 0.19433837
0.06256109 0.75252662 0.17264000
0.55958529 0.75229382 0.07599802
0.73332086 0.75157294 0.06256109
0.87042947 0.74932038 0.06256109
0.99908913 0.74207275 0.06256109
0.06256109 0.87763758 0.27600760
0.06256109 0.87763597 0.27538540
0.06256109 0.87763343 0.27439325
0.06256109 0.87762550 0.27124084
0.06256109 0.87760106 0.26091636
0.06256109 0.87752565 0.22124083
0.68440407 0.87729285 0.06256109
0.85828299 0.87657196 0.06256109
0.99541845 0.87431938 0.06256109
0.06256109 1.00263703 0.37666719
0.06256109 1.00263651 0.37641633
0.06256109 1.00263569 0.37601806
0.06256109 1.00263312 0.37476672
0.06256109 1.00262519 0.37081730
0.06256109 1.00260074 0.35767276
0.06256109 1.00252534 0.30324240
0.80934523 1.00229253 0.06256109
0.98327071 1.00157165 0.06256109
0.06256109 0.06256109 0.27312469
0.15580247 0.06256109 0.27248607
0.26146897 0.06256109 0.27146755
0.37937646 0.06256109 0.26822971
0.50197525 0.06256109 0.25760734
0.62618517 0.06256109 0.21647943
0.75092770 0.06256109 0.06256109
0.87584407 0.06256109 0.06256109
1.00081693 0.06256109 0.06256109
0.06256109 0.13596291 0.27324689
0.13740210 0.13474048 0.27260897
0.25506918 0.13280535 0.27159159
0.37720532 0.12677027 0.26835742
0.50126037 0.10816273 0.25774787
0.62595216 0.06256109 0.21668291
0.75085201 0.06256109 0.06256109
0.87581951 0.06256109 0.06256109
1.00080896 0.06256109 0.06256109
0.06256109 0.25573983 0.27344006
0.10827408 0.25530395 0.27280326
0.24411768 0.25461042 0.27178766
0.37367913 0.25241926 0.26855928
0.50011921 0.24537761 0.25796995
0.62558229 0.22034082 0.21700425
0.75073208 0.07653541 0.06256109
0.87578061 0.06256109 0.06256109
1.00079635 0.06256109 0.06256109
0.06256109 0.37865274 0.27404036
0.06256109 0.37850887 0.27340700
0.20075615 0.37828075 0.27239693
0.36190233 0.37756627 0.26918648
0.49648300 0.37533398 0.25865973
0.62442082 0.36815440 0.21800051
0.75035721 0.34254805 0.06256109
0.87565922 0.16309864 0.06256109
1.00075700 0.06256109 0.06256109
0.06256109 0.50296730 0.27587103
0.06256109 0.50292037 0.27524806
0.06256109 0.50284604 0.27425468
0.31491998 0.50261391 0.27109827
0.48445769 0.50189511 0.26075989
0.62076128 0.49964915 0.22101708
0.74919337 0.49242367 0.06256109
0.87528410 0.46662696 0.06256109
1.00063558 0.28426548 0.06256109
0.06256109 0.62774408 0.28133257
0.06256109 0.62772883 0.28073958
0.06256109 0.62770469 0.27979435
0.06256109 0.62762936 0.27679368
0.43616539 0.62739677 0.26699583
0.60865311 0.62667656 0.22983313
0.74552619 0.62442612 0.06256109
0.87411949 0.61718563 0.06256109
1.00026038 0.59132656 0.06256109
0.06256109 0.75267159 0.29665625
0.06256109 0.75266664 0.29613989
0.06256109 0.75265880 0.29531755
0.06256109 0.75263437 0.29271308
0.06256109 0.75255899 0.28427528
0.55991986 0.75232625 0.25329923
0.73339090 0.75160558 0.06256109
0.87044984 0.74935369 0.06256109
0.99909552 0.74210831 0.06256109
0.06256109 0.87764806 0.33381282
0.06256109 0.87764646 0.33344359
0.06256109 0.87764392 0.33285656
0.06256109 0.87763599 0.33100561
0.06256109 0.87761155 0.32509633
0.06256109 0.87753615 0.30460265
0.68451287 0.87730337 0.19568728
0.85830572 0.87658255 0.06256109
0.99542506 0.87433019 0.06256109
0.06256109 1.00264043 0.40371686
0.06256109 1.00263991 0.40352030
0.06256109 1.00263909 0.40320843
0.06256109 1.00263652 0.40223013
0.06256109 1.00262859 0.39915836
0.06256109 1.00260415 0.38911418
0.06256109 1.00252875 0.35078462
0.80938055 1.00229595 0.06256109
0.98327808 1.00157508 0.06256109
0.07523380 0.06256109 0.40179147
0.19124747 0.06256109 0.40159147
0.27582324 0.06256109 0.40127412
0.38455180 0.06256109 0.40027855
0.50371737 0.06256109 0.39715153
0.62675725 0.06256109 0.38691541
0.75111400 0.06256109 0.34766632
0.87590457 0.06256109 0.06256109
1.00083656 0.06256109 0.06256109
0.06256109 0.16086723 0.40182983
0.17887689 0.15964480 0.40162990
0.27021963 0.15770967 0.40131266
0.38248048 0.15167459 0.40031743
0.50301365 0.13306705 0.39719152
0.62652543 0.07569574 0.38695927
0.75103843 0.06256109 0.34772878
0.87588002 0.06256109 0.06256109
1.00082860 0.06256109 0.06256109
0.06256109 0.26426657 0.40189053
0.15361387 0.26386297 0.40169070
0.26072681 0.26322106 0.40137364
0.37912043 0.26119493 0.40037896
0.50189046 0.25470446 0.39725481
0.62615748 0.23190804 0.38702867
0.75091870 0.10143973 0.34782758
0.87584115 0.06256109 0.06256109
1.00081598 0.06256109 0.06256109
0.06256109 0.38154382 0.40207962
0.06277215 0.38140365 0.40188013
0.22450246 0.38118141 0.40156361
0.36793632 0.38048541 0.40057064
0.49831275 0.37831162 0.39745196
0.62500204 0.37132817 0.38724481
0.75054446 0.34653057 0.34813514
0.87571982 0.18255683 0.06256109
1.00077664 0.06256109 0.06256109
0.06256109 0.50391909 0.40266060
0.06256109 0.50387256 0.40246216
0.06256109 0.50379887 0.40214730
0.32400581 0.50356872 0.40115956
0.48649487 0.50285610 0.39805761
0.62136193 0.50062968 0.38790861
0.74938260 0.49346984 0.34907809
0.87534491 0.46794518 0.06256109
1.00065524 0.29091668 0.06256109
0.06256109 0.62805430 0.40443301
0.06256109 0.62803909 0.40423771
0.06256109 0.62801501 0.40392785
0.06256109 0.62793989 0.40295590
0.43929724 0.62770795 0.39990442
0.60932276 0.62698977 0.38993063
0.74572177 0.62474573 0.35193601
0.87418094 0.61752675 0.06256109
1.00028011 0.59175699 0.06256109
0.06256109 0.75277236 0.40972613
0.06256109 0.75276742 0.40953994
0.06256109 0.75275959 0.40924455
0.06256109 0.75273517 0.40831823
0.06256109 0.75265986 0.40541255
0.56095686 0.75242734 0.39594275
0.73360905 0.75170733 0.36031115
0.87051335 0.74945752 0.06256109
0.99911546 0.74221914 0.06256109
0.06256109 0.87768077 0.42461806
0.06256109 0.87767916 0.42445526
0.06256109 0.87767662 0.42419705
0.06256109 0.87766870 0.42338789
0.06256109 0.87764426 0.42085528
0.06256109 0.87756889 0.41266187
0.68485151 0.87733617 0.38275415
0.85837657 0.87661557 0.07240161
0.99544567 0.87436388 0.06256109
0.06256109 1.00265104 0.46094017
0.06256109 1.00265052 0.46082282
0.06256109 1.00264970 0.46063680
0.06256109 1.00264713 0.46005465
0.06256109 1.00263920 0.45824028
0.06256109 1.00261476 0.45245188
0.06256109 1.00253936 0.43242974
0.80949063 1.00230659 0.32807372
0.98330107 1.00158579 0.06256109
0.19974689 0.10964845 0.52795519
0.25656927 0.10842602 0.52789104
0.31109272 0.10649089 0.52778941
0.39914037 0.10045581 0.52747185
0.50892281 0.08184827 0.52648701
0.62850276 0.06256109 0.52339432
0.75168645 0.06256109 0.51327751
0.87609091 0.06256109 0.47460110
1.00089707 0.06256109 0.06256109
0.18833665 0.21233874 0.52796750
0.24987181 0.21169373 0.52790336
0.30704253 0.21066495 0.52780174
0.39732622 0.20739384 0.52748422
0.50825143 0.19665517 0.52649949
0.62827457 0.15248144 0.52340715
0.75161127 0.06256109 0.51329157
0.87606640 0.06256109 0.47462101
1.00088911 0.06256109 0.06256109
0.16746931 0.28706288 0.52798699
0.23836726 0.28673431 0.52792286
0.30031271 0.28621219 0.52782126
0.39439236 0.28456789 0.52750380
0.50718026 0.27933919 0.52651924
0.62791237 0.26146796 0.52342746
0.75149215 0.17561744 0.51331381
0.87602759 0.06256109 0.47465252
1.00087650 0.06256109 0.06256109
0.07665664 0.39001132 0.52804775
0.19214900 0.38988145 0.52798365
0.27624499 0.38967556 0.52788211
0.38471037 0.38903099 0.52756482
0.50377160 0.38701972 0.52658081
0.62677515 0.38057872 0.52349077
0.75111984 0.35798063 0.51338315
0.87590647 0.22576910 0.47475074
1.00083718 0.06256109 0.06256109
0.06256109 0.50680333 0.52823488
0.06256109 0.50675800 0.52817089
0.12179412 0.50668619 0.52806952
0.34809134 0.50646196 0.52775277
0.49255045 0.50576773 0.52677042
0.62319366 0.50359952 0.52368573
0.74996401 0.49663473 0.51359668
0.87553219 0.47191372 0.47505303
1.00071585 0.30922534 0.06256109
0.06256109 0.62900534 0.52880987
0.06256109 0.62899027 0.52874621
0.06256109 0.62896639 0.52864536
0.06256109 0.62889191 0.52833025
0.44843213 0.62866196 0.52735302
0.61136239 0.62794994 0.52428470
0.74632263 0.62572542 0.51425247
0.87437019 0.61857195 0.47597990
1.00034093 0.59307367 0.06256109
0.06256109 0.75308250 0.53056416
0.06256109 0.75307757 0.53050150
0.06256109 0.75306976 0.53040223
0.06256109 0.75304541 0.53009208
0.06256109 0.75297031 0.52913031
0.56409451 0.75273844 0.52611139
0.73427896 0.75202045 0.51625037
0.87070896 0.74977704 0.47878988
0.99917691 0.74256016 0.06256109
0.06256109 0.87778153 0.53580487
0.06256109 0.87777993 0.53574510
0.06256109 0.87777739 0.53565042
0.06256109 0.87776947 0.53535460
0.06256109 0.87774506 0.53443754
0.06256109 0.87766975 0.53156139
0.68588914 0.87743725 0.52219331
0.85859475 0.87671731 0.48703135
0.99550919 0.87446770 0.06256109
0.06256109 1.00268374 0.55056196
0.06256109 1.00268322 0.55050963
0.06256109 1.00268240 0.55042674
0.06256109 1.00267983 0.55016783
0.06256109 1.00267190 0.54936574
0.06256109 1.00264747 0.54685560
0.06256109 1.00257210 0.53873843
0.80982933 1.00233939 0.50916147
0.98337193 1.00161881 0.19444980
0.33188456 0.25848170 0.65333002
0.35242762 0.25805647 0.65330929
0.37873690 0.25737997 0.65327646
0.43487043 0.25524332 0.65317401
0.52358903 0.24838413 0.65285756
0.63371804 0.22409521 0.65187615
0.75343306 0.08433599 0.64879444
0.87666347 0.06256109 0.63871572
1.00108342 0.06256109 0.60022144
0.32853668 0.29586079 0.65333400
0.34965244 0.29555730 0.65331327
0.37655309 0.29507515 0.65328044
0.43355848 0.29355789 0.65317800
0.52300096 0.28874488 0.65286156
0.63350033 0.27243772 0.65188018
0.75335906 0.19815246 0.64879858
0.87663909 0.06256109 0.63872026
1.00107547 0.06256109 0.60022787
0.32302145 0.33730500 0.65334030
0.34511235 0.33709615 0.65331957
0.37300579 0.33676472 0.65328674
0.43144942 0.33572472 0.65318431
0.52206362 0.33245540 0.65286789
0.63315482 0.32172298 0.65188657
0.75324181 0.28005266 0.64880514
0.87660048 0.06256109 0.63872745
1.00106289 0.06256109 0.60023803
0.30381741 0.41266975 0.65335995
0.32962828 0.41256387 0.65333922
0.36115337 0.41239606 0.65330640
0.42460211 0.41187106 0.65320399
0.51908842 0.41023656 0.65288762
0.63207031 0.40504001 0.65190647
0.75287533 0.38729073 0.64882561
0.87647998 0.30239272 0.63874986
1.00102363 0.06256109 0.60026973
0.20691102 0.51525180 0.65342050
0.26091862 0.51520979 0.65339979
0.31377439 0.51514325 0.65336699
0.40036168 0.51493548 0.65326463
0.50937869 0.51429241 0.65294843
0.62865823 0.51228592 0.65196783
0.75173773 0.50586080 0.64888869
0.87610764 0.48332629 0.63881894
1.00090250 0.35190235 0.60036740
0.06256109 0.63188737 0.65360701
0.06256109 0.63187268 0.65358633
0.06256109 0.63184942 0.65355358
0.24539624 0.63177685 0.65345139
0.47262978 0.63155280 0.65313573
0.61742501 0.63085914 0.65215678
0.74815500 0.62869273 0.64908296
0.87495168 0.62173397 0.63903163
1.00052821 0.59703771 0.60066802
0.06256109 0.75403330 0.65418007
0.06256109 0.75402841 0.65415950
0.06256109 0.75402068 0.65412692
0.06256109 0.75399654 0.65402526
0.06256109 0.75392208 0.65371123
0.57324543 0.75369218 0.65273737
0.73631939 0.75298036 0.64967980
0.87130988 0.75075646 0.63968486
0.99936617 0.74360505 0.60158979
0.06256109 0.87809164 0.65592857
0.06256109 0.87809004 0.65590832
0.06256109 0.87808751 0.65587625
0.06256109 0.87807962 0.65577618
0.06256109 0.87805527 0.65546707
0.06256109 0.87798018 0.65450856
0.68902868 0.87774832 0.65150005
0.85926476 0.87703040 0.64167507
0.99570480 0.87478720 0.60438457
0.06256109 1.00278451 0.66115251
0.06256109 1.00278399 0.66113319
0.06256109 1.00278316 0.66110259
0.06256109 1.00278059 0.66100713
0.06256109 1.00277268 0.66071226
0.06256109 1.00274827 0.65979816
0.06256109 1.00267296 0.65693146
0.81086717 1.00244047 0.64759591
0.98359011 1.00172054 0.61258360
0.45910437 0.39044646 0.77845132
0.46605634 0.39031710 0.77844460
0.47624202 0.39011202 0.77843397
0.50307399 0.38946998 0.77840080
0.55947109 0.38746672 0.77829847
0.64840963 0.38105236 0.77798237
0.75865155 0.35856092 0.77700207
0.87841045 0.22766704 0.77392390
1.00165602 0.06256109 0.76385748
0.45805093 0.40322012 0.77845261
0.46506714 0.40310483 0.77844589
0.47533989 0.40292208 0.77843526
0.50236617 0.40235019 0.77840209
0.55904574 0.40056815 0.77829976
0.64821893 0.39488643 0.77798367
0.75858094 0.37527831 0.77700338
0.87838645 0.27476166 0.77392524
1.00164811 0.06256109 0.76385895
0.45636262 0.42084490 0.77845465
0.46348297 0.42074654 0.77844793
0.47389665 0.42059066 0.77843730
0.50123638 0.42010310 0.77840413
0.55836907 0.41858622 0.77830181
0.64791637 0.41377446 0.77798572
0.75846908 0.39747199 0.77700544
0.87834844 0.32321936 0.77392737
1.00163559 0.06256109 0.76386128
0.45092606 0.46269135 0.77846101
0.45839202 0.46262389 0.77845430
0.46927118 0.46251702 0.77844367
0.49763717 0.46218304 0.77841050
0.55623183 0.46114697 0.77830818
0.64696747 0.45789024 0.77799211
0.75811949 0.44720187 0.77701189
0.87822983 0.40574901 0.77393400
1.00159654 0.06256109 0.76386854
0.43226212 0.53786587 0.77848064
0.44104220 0.53783160 0.77847393
0.45366066 0.53777733 0.77846330
0.48574315 0.53760791 0.77843014
0.54937066 0.53708392 0.77832783
0.64398967 0.53545258 0.77801182
0.75703463 0.53026637 0.77703178
0.87786331 0.51255628 0.77395444
1.00147604 0.42796246 0.76389092
0.33998562 0.64032968 0.77854113
0.35920095 0.64031607 0.77853442
0.38411505 0.64029451 0.77852380
0.43814517 0.64022726 0.77849065
0.52507367 0.64001965 0.77838841
0.63427091 0.63937707 0.77807257
0.75362143 0.63737212 0.77709306
0.87672558 0.63095213 0.77401745
1.00110368 0.60843817 0.76395991
0.06256109 0.75691462 0.77872743
0.06256109 0.75690985 0.77872073
0.06256109 0.75690231 0.77871013
0.06256109 0.75687879 0.77867704
0.36922849 0.75680624 0.77857497
0.59747967 0.75658225 0.77825966
0.74238430 0.75588877 0.77728181
0.87314246 0.75372295 0.77421149
0.99994767 0.74676614 0.76417233
0.06256109 0.87904237 0.77929988
0.06256109 0.87904078 0.77929321
0.06256109 0.87903827 0.77928266
0.06256109 0.87903045 0.77924975
0.06256109 0.87900631 0.77914820
0.06256109 0.87893186 0.77883451
0.69818481 0.87870198 0.77786174
0.86130544 0.87799022 0.77480764
0.99630575 0.87576652 0.76482474
0.06256109 1.00309461 0.78104651
0.06256109 1.00309409 0.78103995
0.06256109 1.00309327 0.78102956
0.06256109 1.00309071 0.78099716
0.06256109 1.00308281 0.78089720
0.06256109 1.00305847 0.78058842
0.06256109 1.00298338 0.77963096
0.81400732 1.00275153 0.77662581
0.98426015 1.00203363 0.76681246
0.58481490 0.51761466 0.90349063
0.58710318 0.51757354 0.90348845
0.59063179 0.51750840 0.90348501
0.60096707 0.51730501 0.90347425
0.62785813 0.51667557 0.90344110
0.68434126 0.51471207 0.90333881
0.77335138 0.50842984 0.90302282
0.88362997 0.48646541 0.90204288
1.00340312 0.36184509 0.89896585
0.58447651 0.52183905 0.90349105
0.58677170 0.52179946 0.90348887
0.59031070 0.52173675 0.90348542
0.60067456 0.52154098 0.90347467
0.62762861 0.52093516 0.90344152
0.68420332 0.51904620 0.90333923
0.77328953 0.51301118 0.90302324
0.88360707 0.49202434 0.90204330
1.00339533 0.37810916 0.89896629
0.58393870 0.52821408 0.90349171
0.58624492 0.52817669 0.90348953
0.58980049 0.52811749 0.90348609
0.60020992 0.52793266 0.90347533
0.62726430 0.52736082 0.90344218
0.68398461 0.52557896 0.90333989
0.77319155 0.51989780 0.90302391
0.88357081 0.50029188 0.90204397
1.00338301 0.39979522 0.89896698
0.58224452 0.54602710 0.90349378
0.58458584 0.54599527 0.90349160
0.58819408 0.54594484 0.90348815
0.59874824 0.54578745 0.90347740
0.62612038 0.54530076 0.90344424
0.68329975 0.54378660 0.90334195
0.77288544 0.53898371 0.90302598
0.88345765 0.52271430 0.90204606
1.00334456 0.44869185 0.89896913
0.57685204 0.58781637 0.90350014
0.57930861 0.58779452 0.90349796
0.58308956 0.58775992 0.90349451
0.59411645 0.58765195 0.90348376
0.62251735 0.58731838 0.90345061
0.68116116 0.58628357 0.90334833
0.77193627 0.58303091 0.90303237
0.88310802 0.57235674 0.90205251
1.00322594 0.53097392 0.89897576
0.55835680 0.66292940 0.90351976
0.56125294 0.66291830 0.90351758
0.56568849 0.66290071 0.90351414
0.57848255 0.66284585 0.90350339
0.61060977 0.66267654 0.90347024
0.67429549 0.66215287 0.90336797
0.76895762 0.66052255 0.90305207
0.88202305 0.65533968 0.90207239
1.00285941 0.63764228 0.89899619
0.46748322 0.76535493 0.90358023
0.47394422 0.76535052 0.90357805
0.48346037 0.76534353 0.90357461
0.50878159 0.76532173 0.90356387
0.56294033 0.76525449 0.90353074
0.64998010 0.76504693 0.90342853
0.75923592 0.76440451 0.90311280
0.87860949 0.76240006 0.90213365
1.00172165 0.75598174 0.89905918
0.06256109 0.88192345 0.90376646
0.06256109 0.88192191 0.90376429
0.06256109 0.88191946 0.90376085
0.06256109 0.88191184 0.90375013
0.06256109 0.88188832 0.90371705
0.49384709 0.88181577 0.90361502
0.72243094 0.88159180 0.90329982
0.86737109 0.88089838 0.90232233
0.99813840 0.87873274 0.89925315
0.06256109 1.00404531 0.90433871
0.06256109 1.00404480 0.90433655
0.06256109 1.00404398 0.90433313
0.06256109 1.00404144 0.90432246
0.06256109 1.00403362 0.90428955
0.06256109 1.00400948 0.90418804
0.06256109 1.00393503 0.90387447
0.82316514 1.00370516 0.90290205
0.98630091 1.00299342 0.89984907
0.71004438 0.64330889 1.02850338
0.71079019 0.64329564 1.02850267
0.71196067 0.64327465 1.02850155
0.71553375 0.64320918 1.02849807
0.72587775 0.64300708 1.02848732
0.75278803 0.64238161 1.02845416
0.80929912 0.64043067 1.02835189
0.89833248 0.63419014 1.02803594
1.00862298 0.61239135 1.02705611
0.70993496 0.64468810 1.02850351
0.71068151 0.64467501 1.02850281
0.71185313 0.64465429 1.02850169
0.71542962 0.64458962 1.02849820
0.72578288 0.64439002 1.02848745
0.75271359 0.64377232 1.02845430
0.80925438 0.64184587 1.02835202
0.89831242 0.63568663 1.02803608
1.00861555 0.61420988 1.02705625
0.70976154 0.64683697 1.02850373
0.71050925 0.64682413 1.02850302
0.71168268 0.64680381 1.02850190
0.71526458 0.64674038 1.02849842
0.72563255 0.64654461 1.02848767
0.75259565 0.64593881 1.02845452
0.80918353 0.64404992 1.02835224
0.89828066 0.63801510 1.02803629
1.00860379 0.61702908 1.02705647
0.70921893 0.65328338 1.02850440
0.70997029 0.65327126 1.02850369
0.71114940 0.65325208 1.02850257
0.71474827 0.65319224 1.02849909
0.72516237 0.65300753 1.02848834
0.75222704 0.65243608 1.02845519
0.80896226 0.65065543 1.02835291
0.89818154 0.64497829 1.02803696
1.00856711 0.62538791 1.02705714
0.70752905 0.67108614 1.02850646
0.70829190 0.67107582 1.02850576
0.70948887 0.67105948 1.02850464
0.71314110 0.67100851 1.02850115
0.72370006 0.67085120 1.02849040
0.75108273 0.67036479 1.02845725
0.80827726 0.66885151 1.02835497
0.89787540 0.66405149 1.02803904
1.00845395 0.64779277 1.02705923
0.70215071 0.71285689 1.02851283
0.70295129 0.71284980 1.02851212
0.70420692 0.71283859 1.02851100
0.70803408 0.71280360 1.02850752
0.71906622 0.71269568 1.02849677
0.74747846 0.71236224 1.02846362
0.80613823 0.71132784 1.02836135
0.89692615 0.70807650 1.02804543
1.00810431 0.69740693 1.02706568
0.68370953 0.78795000 1.02853244
0.68465417 0.78794640 1.02853174
0.68613329 0.78794070 1.02853062
0.69062360 0.78792292 1.02852713
0.70342473 0.78786807 1.02851639
0.73556648 0.78769879 1.02848324
0.79927110 0.78717522 1.02838099
0.89394722 0.78554523 1.02806513
1.00701930 0.78036345 1.02708556
0.59328136 0.89036312 1.02859291
0.59540321 0.89036169 1.02859220
0.59868135 0.89035942 1.02859108
0.60832422 0.89035235 1.02858760
0.63367322 0.89033056 1.02857686
0.68787381 0.89026333 1.02854373
0.77494973 0.89005578 1.02844153
0.88422458 0.88941341 1.02812585
1.00360562 0.88740912 1.02714681
0.06256109 1.00692632 1.02877912
0.06256109 1.00692582 1.02877841
0.06256109 1.00692502 1.02877730
0.06256109 1.00692255 1.02877382
0.06256109 1.00691492 1.02876310
0.06256109 1.00689141 1.02873003
0.61872311 1.00681886 1.02862800
0.84741513 1.00659490 1.02831284
0.99236680 1.00590150 1.02733547
