Assets/CustomLUTs/Resources/DefaultLUT.cube
TITLE "Custom LUT"
LUT_3D_SIZE 5
# S-Log3/Sony S-Gamut3.cine (Venice) -> S-Log3/Sony S-Gamut3.cine, CineEI Shift 0.00, Black Level 3.54% IRE, Input 109% -> Output 109% - Created with LUTCalc v4.03 by Ben Turley January 2022
0.06256109 0.06256109 0.06256109
0.25314743 0.06256109 0.06256109
0.50105277 0.06256109 0.06256109
0.75083011 0.06256109 0.06256109
1.00080666 0.06256109 0.06256109
0.06256109 0.25100321 0.06256109
0.23432453 0.24982431 0.06256109
0.49918110 0.24016654 0.06256109
0.75063431 0.06350547 0.06256109
1.00078607 0.06256109 0.06256109
0.06256109 0.50246606 0.06256109
0.06256109 0.50234425 0.06256109
0.48337676 0.50138899 0.06256109
0.74909423 0.49187236 0.06256109
1.00062529 0.28062000 0.06256109
0.06256109 0.75261882 0.06256109
0.06256109 0.75260603 0.06256109
0.06256109 0.75250617 0.06256109
0.73327659 0.75155231 0.06256109
0.99908509 0.74205028 0.06256109
0.06256109 1.00263488 0.35540615
0.06256109 1.00263354 0.35461952
0.06256109 1.00262304 0.34828103
0.06256109 1.00252319 0.25750151
0.98326605 1.00156948 0.06256109
0.06256109 0.06256109 0.27312469
0.26146897 0.06256109 0.27146755
0.50197525 0.06256109 0.25760734
0.75092770 0.06256109 0.06256109
1.00081693 0.06256109 0.06256109
0.06256109 0.25573983 0.27344006
0.24411768 0.25461042 0.27178766
0.50011921 0.24537761 0.25796995
0.75073208 0.07653541 0.06256109
1.00079635 0.06256109 0.06256109
0.06256109 0.50296730 0.27587103
0.06256109 0.50284604 0.27425468
0.48445769 0.50189511 0.26075989
0.74919337 0.49242367 0.06256109
1.00063558 0.28426548 0.06256109
0.06256109 0.75267159 0.29665625
0.06256109 0.75265880 0.29531755
0.06256109 0.75255899 0.28427528
0.73339090 0.75160558 0.06256109
0.99909552 0.74210831 0.06256109
0.06256109 1.00264043 0.40371686
0.06256109 1.00263909 0.40320843
0.06256109 1.00262859 0.39915836
0.06256109 1.00252875 0.35078462
0.98327808 1.00157508 0.06256109
0.19974689 0.10964845 0.52795519
0.31109272 0.10649089 0.52778941
0.50892281 0.08184827 0.52648701
0.75168645 0.06256109 0.51327751
1.00089707 0.06256109 0.06256109
0.16746931 0.28706288 0.52798699
0.30031271 0.28621219 0.52782126
0.50718026 0.27933919 0.52651924
0.75149215 0.17561744 0.51331381
1.00087650 0.06256109 0.06256109
0.06256109 0.50680333 0.52823488
0.12179412 0.50668619 0.52806952
0.49255045 0.50576773 0.52677042
0.74996401 0.49663473 0.51359668
1.00071585 0.30922534 0.06256109
0.06256109 0.75308250 0.53056416
0.06256109 0.75306976 0.53040223
0.06256109 0.75297031 0.52913031
0.73427896 0.75202045 0.51625037
0.99917691 0.74256016 0.06256109
0.06256109 1.00268374 0.55056196
0.06256109 1.00268240 0.55042674
0.06256109 1.00267190 0.54936574
0.06256109 1.00257210 0.53873843
0.98337193 1.00161881 0.19444980
0.45910437 0.39044646 0.77845132
0.47624202 0.39011202 0.77843397
0.55947109 0.38746672 0.77829847
0.75865155 0.35856092 0.77700207
1.00165602 0.06256109 0.76385748
0.45636262 0.42084490 0.77845465
0.47389665 0.42059066 0.77843730
0.55836907 0.41858622 0.77830181
0.75846908 0.39747199 0.77700544
1.00163559 0.06256109 0.76386128
0.43226212 0.53786587 0.77848064
0.45366066 0.53777733 0.77846330
0.54937066 0.53708392 0.77832783
0.75703463 0.53026637 0.77703178
1.00147604 0.42796246 0.76389092
0.06256109 0.75691462 0.77872743
0.06256109 0.75690231 0.77871013
0.36922849 0.75680624 0.77857497
0.74238430 0.75588877 0.77728181
0.99994767 0.74676614 0.76417233
0.06256109 1.00309461 0.78104651
0.06256109 1.00309327 0.78102956
0.06256109 1.00308281 0.78089720
0.06256109 1.00298338 0.77963096
0.98426015 1.00203363 0.76681246
0.71004438 0.64330889 1.02850338
0.71196067 0.64327465 1.02850155
0.72587775 0.64300708 1.02848732
0.80929912 0.64043067 1.02835189
1.00862298 0.61239135 1.02705611
0.70976154 0.64683697 1.02850373
0.71168268 0.64680381 1.02850190
0.72563255 0.64654461 1.02848767
0.80918353 0.64404992 1.02835224
1.00860379 0.61702908 1.02705647
0.70752905 0.67108614 1.02850646
0.70948887 0.67105948 1.02850464
0.72370006 0.67085120 1.02849040
0.80827726 0.66885151 1.02835497
1.00845395 0.64779277 1.02705923
0.68370953 0.78795000 1.02853244
0.68613329 0.78794070 1.02853062
0.70342473 0.78786807 1.02851639
0.79927110 0.78717522 1.02838099
1.00701930 0.78036345 1.02708556
0.06256109 1.00692632 1.02877912
0.06256109 1.00692502 1.02877730
0.06256109 1.00691492 1.02876310
0.61872311 1.00681886 1.02862800
0.99236680 1.00590150 1.02733547
