Assets/CustomLUTs/Resources/DefaultLUT.cube
TITLE "Custom LUT"
LUT_3D_SIZE 33
# S-Log3/Sony S-Gamut3.cine (Venice) -> S-Log3/Sony S-Gamut3.cine, CineEI Shift 0.00, Black Level 3.54% IRE, Input 109% -> Output 109% - Created with LUTCalc v4.03 by Ben Turley January 2022
0.06256109 0.06256109 0.06256109
0.06256109 0.06256109 0.06256109
0.06912646 0.06256109 0.06256109
0.10060357 0.06256109 0.06256109
0.13208069 0.06256109 0.06256109
0.16355780 0.06256109 0.06256109
0.19238666 0.06256109 0.06256109
0.22264879 0.06256109 0.06256109
0.25314743 0.06256109 0.06256109
0.28382702 0.06256109 0.06256109
0.31464461 0.06256109 0.06256109
0.34556717 0.06256109 0.06256109
0.37656942 0.06256109 0.06256109
0.40763209 0.06256109 0.06256109
0.43874052 0.06256109 0.06256109
0.46988355 0.06256109 0.06256109
0.50105277 0.06256109 0.06256109
0.53224176 0.06256109 0.06256109
0.56344570 0.06256109 0.06256109
0.59466093 0.06256109 0.06256109
0.62588468 0.06256109 0.06256109
0.65711487 0.06256109 0.06256109
0.68834991 0.06256109 0.06256109
0.71958863 0.06256109 0.06256109
0.75083011 0.06256109 0.06256109
0.78207368 0.06256109 0.06256109
0.81331883 0.06256109 0.06256109
0.84456517 0.06256109 0.06256109
0.87581240 0.06256109 0.06256109
0.90706032 0.06256109 0.06256109
0.93830874 0.06256109 0.06256109
0.96955756 0.06256109 0.06256109
1.00080666 0.06256109 0.06256109
0.06256109 0.06256109 0.06256109
0.06256109 0.06256109 0.06256109
0.06452637 0.06256109 0.06256109
0.09600348 0.06256109 0.06256109
0.12748060 0.06256109 0.06256109
0.15895771 0.06256109 0.06256109
0.18945152 0.06256109 0.06256109
0.22042105 0.06256109 0.06256109
0.25145893 0.06256109 0.06256109
0.28254858 0.06256109 0.06256109
0.31367742 0.06256109 0.06256109
0.34483589 0.06256109 0.06256109
0.37601677 0.06256109 0.06256109
0.40721458 0.06256109 0.06256109
0.43842518 0.06256109 0.06256109
0.46964544 0.06256109 0.06256109
0.50087299 0.06256109 0.06256109
0.53210604 0.06256109 0.06256109
0.56334325 0.06256109 0.06256109
0.59458360 0.06256109 0.06256109
0.62582631 0.06256109 0.06256109
0.65707082 0.06256109 0.06256109
0.68831667 0.06256109 0.06256109
0.71956353 0.06256109 0.06256109
0.75081117 0.06256109 0.06256109
0.78205939 0.06256109 0.06256109
0.81330804 0.06256109 0.06256109
0.84455703 0.06256109 0.06256109
0.87580626 0.06256109 0.06256109
0.90705568 0.06256109 0.06256109
0.93830524 0.06256109 0.06256109
0.96955492 0.06256109 0.06256109
1.00080467 0.06256109 0.06256109
0.06256109 0.06256109 0.06256109
0.06256109 0.06256109 0.06256109
0.06256109 0.06256109 0.06256109
0.09140339 0.06256109 0.06256109
0.12288051 0.06256109 0.06256109
0.15435762 0.06256109 0.06256109
0.18643666 0.06256109 0.06256109
0.21814769 0.06256109 0.06256109
0.24974435 0.06256109 0.06256109
0.28125524 0.06256109 0.06256109
0.31270172 0.06256109 0.06256109
0.34409977 0.06256109 0.06256109
0.37546136 0.06256109 0.06256109
0.40679550 0.06256109 0.06256109
0.43810895 0.06256109 0.06256109
0.46940681 0.06256109 0.06256109
0.50069292 0.06256109 0.06256109
0.53197016 0.06256109 0.06256109
0.56324071 0.06256109 0.06256109
0.59450622 0.06256109 0.06256109
0.62576792 0.06256109 0.06256109
0.65702675 0.06256109 0.06256109
0.68828341 0.06256109 0.06256109
0.71953844 0.06256109 0.06256109
0.75079223 0.06256109 0.06256109
0.78204510 0.06256109 0.06256109
0.81329726 0.06256109 0.06256109
0.84454889 0.06256109 0.06256109
0.87580012 0.06256109 0.06256109
0.90705105 0.06256109 0.06256109
0.93830175 0.06256109 0.06256109
0.96955228 0.06256109 0.06256109
1.00080267 0.06256109 0.06256109
0.06256109 0.09093185 0.06256109
0.06256109 0.09062624 0.06256109
0.06256109 0.09032063 0.06256109
0.08680330 0.09001503 0.06256109
0.11828041 0.08970942 0.06256109
0.14975753 0.08940381 0.06256109
0.18333763 0.08902143 0.06256109
0.21582680 0.08848505 0.06256109
0.24800288 0.08777429 0.06256109
0.27994667 0.08683246 0.06256109
0.31171738 0.08558443 0.06256109
0.34335873 0.08393065 0.06256109
0.37490315 0.08173921 0.06256109
0.40637482 0.07883532 0.06256109
0.43779182 0.07498735 0.06256109
0.46916767 0.06988837 0.06256109
0.50051256 0.06313167 0.06256109
0.53183411 0.06256109 0.06256109
0.56313807 0.06256109 0.06256109
0.59442878 0.06256109 0.06256109
0.62570949 0.06256109 0.06256109
0.65698266 0.06256109 0.06256109
0.68825015 0.06256109 0.06256109
0.71951334 0.06256109 0.06256109
0.75077329 0.06256109 0.06256109
0.78203080 0.06256109 0.06256109
0.81328647 0.06256109 0.06256109
0.84454075 0.06256109 0.06256109
0.87579397 0.06256109 0.06256109
0.90704641 0.06256109 0.06256109
0.93829825 0.06256109 0.06256109
0.96954964 0.06256109 0.06256109
1.00080068 0.06256109 0.06256109
0.06256109 0.12293297 0.06256109
0.06256109 0.12262736 0.06256109
0.06256109 0.12232175 0.06256109
0.08220321 0.12201615 0.06256109
0.11368032 0.12171054 0.06256109
0.14515744 0.12140493 0.06256109
0.18014961 0.12102255 0.06256109
0.21345636 0.12048617 0.06256109
0.24623365 0.11977541 0.06256109
0.27862248 0.11883358 0.06256109
0.31072423 0.11758555 0.06256109
0.34261271 0.11593177 0.06256109
0.37434212 0.11374033 0.06256109
0.40595255 0.11083644 0.06256109
0.43747377 0.10698847 0.06256109
0.46892802 0.10188949 0.06256109
0.50033190 0.09513279 0.06256109
0.53169789 0.08617943 0.06256109
0.56303534 0.07431525 0.06256109
0.59435129 0.06256109 0.06256109
0.62565104 0.06256109 0.06256109
0.65693856 0.06256109 0.06256109
0.68821687 0.06256109 0.06256109
0.71948823 0.06256109 0.06256109
0.75075435 0.06256109 0.06256109
0.78201651 0.06256109 0.06256109
0.81327568 0.06256109 0.06256109
0.84453261 0.06256109 0.06256109
0.87578783 0.06256109 0.06256109
0.90704177 0.06256109 0.06256109
0.93829475 0.06256109 0.06256109
0.96954700 0.06256109 0.06256109
1.00079869 0.06256109 0.06256109
0.06256109 0.15493409 0.06256109
0.06256109 0.15462848 0.06256109
0.06256109 0.15432287 0.06256109
0.07760312 0.15401727 0.06256109
0.10908023 0.15371166 0.06256109
0.14055735 0.15340605 0.06256109
0.17686731 0.15302367 0.06256109
0.21103419 0.15248729 0.06256109
0.24443577 0.15177653 0.06256109
0.27728230 0.15083470 0.06256109
0.30972212 0.14958667 0.06256109
0.34186164 0.14793289 0.06256109
0.37377825 0.14574145 0.06256109
0.40552866 0.14283756 0.06256109
0.43715482 0.13898959 0.06256109
0.46868784 0.13389061 0.06256109
0.50015095 0.12713391 0.06256109
0.53156151 0.11818055 0.06256109
0.56293251 0.10631637 0.06256109
0.59427375 0.09059505 0.06256109
0.62559255 0.06976260 0.06256109
0.65689444 0.06256109 0.06256109
0.68818358 0.06256109 0.06256109
0.71946312 0.06256109 0.06256109
0.75073540 0.06256109 0.06256109
0.78200221 0.06256109 0.06256109
0.81326489 0.06256109 0.06256109
0.84452446 0.06256109 0.06256109
0.87578169 0.06256109 0.06256109
0.90703714 0.06256109 0.06256109
0.93829125 0.06256109 0.06256109
0.96954436 0.06256109 0.06256109
1.00079670 0.06256109 0.06256109
0.06256109 0.18725223 0.06256109
0.06256109 0.18705050 0.06256109
0.06256109 0.18684840 0.06256109
0.07184746 0.18664593 0.06256109
0.10332458 0.18644309 0.06256109
0.13480169 0.18623988 0.06256109
0.17261892 0.18598509 0.06256109
0.20792718 0.18562671 0.06256109
0.24214446 0.18515002 0.06256109
0.27558236 0.18451518 0.06256109
0.30845539 0.18366833 0.06256109
0.34091469 0.18253611 0.06256109
0.37306866 0.18101778 0.06256109
0.40499600 0.17897330 0.06256109
0.43675444 0.17620480 0.06256109
0.46838660 0.17242655 0.06256109
0.49992413 0.16717386 0.06256109
0.53139062 0.15822050 0.06256109
0.56280372 0.14635633 0.06256109
0.59417665 0.13063501 0.06256109
0.62551932 0.10980255 0.06256109
0.65683921 0.08219729 0.06256109
0.68814192 0.06256109 0.06256109
0.71943169 0.06256109 0.06256109
0.75071168 0.06256109 0.06256109
0.78198432 0.06256109 0.06256109
0.81325139 0.06256109 0.06256109
0.84451428 0.06256109 0.06256109
0.87577400 0.06256109 0.06256109
0.90703134 0.06256109 0.06256109
0.93828687 0.06256109 0.06256109
0.96954105 0.06256109 0.06256109
1.00079420 0.06256109 0.06256109
0.06256109 0.21921691 0.06256109
0.06256109 0.21906568 0.06256109
0.06256109 0.21891425 0.06256109
0.06377374 0.21876260 0.06256109
0.09525085 0.21861075 0.06256109
0.12672797 0.21845870 0.06256109
0.16611228 0.21826815 0.06256109
0.20341688 0.21800031 0.06256109
0.23884848 0.21764439 0.06256109
0.27315303 0.21717099 0.06256109
0.30665378 0.21654056 0.06256109
0.33957260 0.21569962 0.06256109
0.37206559 0.21457538 0.06256109
0.40424448 0.21306788 0.06256109
0.43619037 0.21103822 0.06256109
0.46796265 0.20829022 0.06256109
0.49960517 0.20454078 0.06256109
0.53115048 0.19936888 0.06256109
0.56262281 0.19212193 0.06256109
0.59404030 0.18172671 0.06256109
0.62541653 0.16596844 0.06256109
0.65676169 0.13836318 0.06256109
0.68808346 0.10178322 0.06256109
0.71938758 0.06256109 0.06256109
0.75067841 0.06256109 0.06256109
0.78195921 0.06256109 0.06256109
0.81323245 0.06256109 0.06256109
0.84449999 0.06256109 0.06256109
0.87576322 0.06256109 0.06256109
0.90702320 0.06256109 0.06256109
0.93828073 0.06256109 0.06256109
0.96953642 0.06256109 0.06256109
1.00079071 0.06256109 0.06256109
0.06256109 0.25100321 0.06256109
0.06256109 0.25088966 0.06256109
0.06256109 0.25077598 0.06256109
0.06256109 0.25066219 0.06256109
0.08455230 0.25054829 0.06256109
0.11602941 0.25043427 0.06256109
0.15541372 0.25029144 0.06256109
0.19714320 0.25009077 0.06256109
0.23432453 0.24982431 0.06256109
0.26984977 0.24947023 0.06256109
0.30422050 0.24899928 0.06256109
0.33776882 0.24837214 0.06256109
0.37072229 0.24753561 0.06256109
0.40324074 0.24641732 0.06256109
0.43543847 0.24491789 0.06256109
0.46739837 0.24289927 0.06256109
0.49918110 0.24016654 0.06256109
0.53083145 0.23643855 0.06256109
0.56238262 0.23129745 0.06256109
0.59385936 0.22409613 0.06256109
0.62528017 0.21377174 0.06256109
0.65665889 0.19842032 0.06256109
0.68800594 0.17413082 0.06256109
0.71932911 0.12773669 0.06256109
0.75063431 0.06350547 0.06256109
0.78192594 0.06256109 0.06256109
0.81320735 0.06256109 0.06256109
0.84448105 0.06256109 0.06256109
0.87574892 0.06256109 0.06256109
0.90701242 0.06256109 0.06256109
0.93827260 0.06256109 0.06256109
0.96953028 0.06256109 0.06256109
1.00078607 0.06256109 0.06256109
0.06256109 0.28265623 0.06256109
0.06256109 0.28257085 0.06256109
0.06256109 0.28248541 0.06256109
0.06256109 0.28239991 0.06256109
0.07037554 0.28231434 0.06256109
0.10185266 0.28222870 0.06256109
0.14123697 0.28212145 0.06256109
0.18824308 0.28197084 0.06256109
0.22803090 0.28177095 0.06256109
0.26531546 0.28150552 0.06256109
0.30091171 0.28115282 0.06256109
0.33533254 0.28068371 0.06256109
0.36891686 0.28005902 0.06256109
0.40189653 0.27922579 0.06256109
0.43443422 0.27811195 0.06256109
0.46664619 0.27661855 0.06256109
0.49861666 0.27460818 0.06256109
0.53040729 0.27188687 0.06256109
0.56206355 0.26817491 0.06256109
0.59361915 0.26305680 0.06256109
0.62509921 0.25588953 0.06256109
0.65652252 0.24561797 0.06256109
0.68790313 0.23035470 0.06256109
0.71925159 0.20623194 0.06256109
0.75057584 0.16212785 0.06256109
0.78188183 0.07701452 0.06256109
0.81317408 0.06256109 0.06256109
0.84445594 0.06256109 0.06256109
0.87572998 0.06256109 0.06256109
0.90699812 0.06256109 0.06256109
0.93826181 0.06256109 0.06256109
0.96952214 0.06256109 0.06256109
1.00077993 0.06256109 0.06256109
0.06256109 0.31420940 0.06256109
0.06256109 0.31414515 0.06256109
0.06256109 0.31408087 0.06256109
0.06256109 0.31401655 0.06256109
0.06256109 0.31395219 0.06256109
0.08306693 0.31388780 0.06256109
0.12245124 0.31380717 0.06256109
0.17523007 0.31369398 0.06256109
0.21910049 0.31354380 0.06256109
0.25900671 0.31334450 0.06256109
0.29636956 0.31307984 0.06256109
0.33201959 0.31272816 0.06256109
0.36647832 0.31226043 0.06256109
0.40008986 0.31163758 0.06256109
0.43308932 0.31080682 0.06256109
0.46564155 0.30969631 0.06256109
0.49786426 0.30820744 0.06256109
0.52984273 0.30620325 0.06256109
0.56163932 0.30349049 0.06256109
0.59330003 0.29979053 0.06256109
0.62485898 0.29468965 0.06256109
0.65634155 0.28754786 0.06256109
0.68776675 0.27731580 0.06256109
0.71914878 0.26211838 0.06256109
0.75049831 0.23811994 0.06256109
0.78182336 0.19534291 0.06256109
0.81312997 0.09491548 0.06256109
0.84442267 0.06256109 0.06256109
0.87570488 0.06256109 0.06256109
0.90697918 0.06256109 0.06256109
0.93824752 0.06256109 0.06256109
0.96951136 0.06256109 0.06256109
1.00077180 0.06256109 0.06256109
0.06256109 0.34568764 0.06256109
0.06256109 0.34563926 0.06256109
0.06256109 0.34559086 0.06256109
0.06256109 0.34554244 0.06256109
0.06256109 0.34549399 0.06256109
0.06256109 0.34544553 0.06256109
0.09755811 0.34538486 0.06256109
0.15280430 0.34529970 0.06256109
0.20603857 0.34518675 0.06256109
0.25005330 0.34503691 0.06256109
0.29004935 0.34483803 0.06256109
0.32747149 0.34457396 0.06256109
0.36316221 0.34422305 0.06256109
0.39764961 0.34375636 0.06256109
0.43128171 0.34313489 0.06256109
0.46429613 0.34230599 0.06256109
0.49685933 0.34119798 0.06256109
0.52909017 0.33971250 0.06256109
0.56107466 0.33771295 0.06256109
0.59287575 0.33500661 0.06256109
0.62453983 0.33131566 0.06256109
0.65610130 0.32622769 0.06256109
0.68758577 0.31910502 0.06256109
0.71901239 0.30890257 0.06256109
0.75039549 0.29375447 0.06256109
0.78174583 0.26984900 0.06256109
0.81307150 0.22729646 0.06256109
0.84437856 0.11863619 0.06256109
0.87567161 0.06256109 0.06256109
0.90695408 0.06256109 0.06256109
0.93822858 0.06256109 0.06256109
0.96949706 0.06256109 0.06256109
1.00076101 0.06256109 0.06256109
0.06256109 0.37710958 0.06256109
0.06256109 0.37707313 0.06256109
0.06256109 0.37703666 0.06256109
0.06256109 0.37700019 0.06256109
0.06256109 0.37696370 0.06256109
0.06256109 0.37692720 0.06256109
0.06457200 0.37688151 0.06256109
0.11981820 0.37681739 0.06256109
0.18595958 0.37673237 0.06256109
0.23695421 0.37661961 0.06256109
0.28107850 0.37647001 0.06256109
0.32114260 0.37627147 0.06256109
0.35860962 0.37600783 0.06256109
0.39433110 0.37565751 0.06256109
0.42884017 0.37519159 0.06256109
0.46248781 0.37457116 0.06256109
0.49551352 0.37374365 0.06256109
0.52808502 0.37263752 0.06256109
0.56032198 0.37115460 0.06256109
0.59231103 0.36915854 0.06256109
0.62411551 0.36645701 0.06256109
0.65578213 0.36277283 0.06256109
0.68734551 0.35769458 0.06256109
0.71883141 0.35058626 0.06256109
0.75025911 0.34040604 0.06256109
0.78164302 0.32529495 0.06256109
0.81299397 0.30145916 0.06256109
0.84432009 0.25907446 0.06256109
0.87562750 0.15006870 0.06256109
0.90692080 0.06256109 0.06256109
0.93820347 0.06256109 0.06256109
0.96947812 0.06256109 0.06256109
1.00074672 0.06256109 0.06256109
0.06256109 0.40848915 0.06256109
0.06256109 0.40846168 0.06256109
0.06256109 0.40843420 0.06256109
0.06256109 0.40840671 0.06256109
0.06256109 0.40837921 0.06256109
0.06256109 0.40835171 0.06256109
0.06256109 0.40831729 0.06256109
0.07610803 0.40826898 0.06256109
0.14931523 0.40820494 0.06256109
0.21680882 0.40812003 0.06256109
0.26795122 0.40800741 0.06256109
0.31215855 0.40785800 0.06256109
0.35227416 0.40765970 0.06256109
0.38977512 0.40739639 0.06256109
0.42551986 0.40704650 0.06256109
0.46004529 0.40658117 0.06256109
0.49370467 0.40596152 0.06256109
0.52673891 0.40513506 0.06256109
0.55931666 0.40403035 0.06256109
0.59155825 0.40254934 0.06256109
0.62355073 0.40055591 0.06256109
0.65535779 0.39785801 0.06256109
0.68702632 0.39417892 0.06256109
0.71859114 0.38910797 0.06256109
0.75007812 0.38201044 0.06256109
0.78150663 0.37184694 0.06256109
0.81289115 0.35676366 0.06256109
0.84424256 0.33298019 0.06256109
0.87556902 0.29072127 0.06256109
0.90687670 0.18508528 0.06256109
0.93817020 0.06256109 0.06256109
0.96945302 0.06256109 0.06256109
1.00072778 0.06256109 0.06256109
0.06256109 0.43983684 0.06256109
0.06256109 0.43981612 0.06256109
0.06256109 0.43979540 0.06256109
0.06256109 0.43977468 0.06256109
0.06256109 0.43975395 0.06256109
0.06256109 0.43973322 0.06256109
0.06256109 0.43970728 0.06256109
0.06256109 0.43967087 0.06256109
0.09139452 0.43962262 0.06256109
0.18283103 0.43955864 0.06256109
0.24775543 0.43947380 0.06256109
0.29900992 0.43936128 0.06256109
0.34328012 0.43921201 0.06256109
0.38343469 0.43901390 0.06256109
0.42096131 0.43875084 0.06256109
0.45672362 0.43840128 0.06256109
0.49126141 0.43793638 0.06256109
0.52492965 0.43731733 0.06256109
0.55797033 0.43649166 0.06256109
0.59055281 0.43538801 0.06256109
0.62279789 0.43390845 0.06256109
0.65479297 0.43191699 0.06256109
0.68660195 0.42922183 0.06256109
0.71827194 0.42554657 0.06256109
0.74983784 0.42048111 0.06256109
0.78132563 0.41339171 0.06256109
0.81275475 0.40324079 0.06256109
0.84413974 0.38817843 0.06256109
0.87549149 0.36443428 0.06256109
0.90681822 0.32226978 0.06256109
0.93812609 0.21710670 0.06256109
0.96941974 0.06256109 0.06256109
1.00070267 0.06256109 0.06256109
0.06256109 0.47116050 0.06256109
0.06256109 0.47114488 0.06256109
0.06256109 0.47112925 0.06256109
0.06256109 0.47111363 0.06256109
0.06256109 0.47109800 0.06256109
0.06256109 0.47108237 0.06256109
0.06256109 0.47106280 0.06256109
0.06256109 0.47103536 0.06256109
0.06256109 0.47099898 0.06256109
0.11165077 0.47095076 0.06256109
0.21366879 0.47088682 0.06256109
0.27877592 0.47080205 0.06256109
0.33011533 0.47068961 0.06256109
0.37443310 0.47054044 0.06256109
0.41461713 0.47034247 0.06256109
0.45216313 0.47007959 0.06256109
0.48793871 0.46973029 0.06256109
0.52248584 0.46926572 0.06256109
0.55616077 0.46864711 0.06256109
0.58920631 0.46782204 0.06256109
0.62179235 0.46671919 0.06256109
0.65404007 0.46524072 0.06256109
0.68603711 0.46325075 0.06256109
0.71784755 0.46055764 0.06256109
0.74951863 0.45688527 0.06256109
0.78108535 0.45182395 0.06256109
0.81257376 0.44474067 0.06256109
0.84400334 0.43459922 0.06256109
0.87538867 0.41955260 0.06256109
0.90674069 0.39583806 0.06256109
0.93806762 0.35374452 0.06256109
0.96937563 0.24893533 0.06256109
1.00066940 0.06256109 0.06256109
0.06256109 0.50246606 0.06256109
0.06256109 0.50245427 0.06256109
0.06256109 0.50244249 0.06256109
0.06256109 0.50243070 0.06256109
0.06256109 0.50241892 0.06256109
0.06256109 0.50240713 0.06256109
0.06256109 0.50239238 0.06256109
0.06256109 0.50237168 0.06256109
0.06256109 0.50234425 0.06256109
0.06256109 0.50230789 0.06256109
0.13849250 0.50225969 0.06256109
0.24460668 0.50219579 0.06256109
0.30985240 0.50211106 0.06256109
0.36125610 0.50199868 0.06256109
0.40560983 0.50184960 0.06256109
0.44581612 0.50165173 0.06256109
0.48337676 0.50138899 0.06256109
0.51916236 0.50103987 0.06256109
0.55371653 0.50057556 0.06256109
0.58739651 0.49995728 0.06256109
0.62044573 0.49913266 0.06256109
0.65303446 0.49803042 0.06256109
0.68528417 0.49655276 0.06256109
0.71728268 0.49456391 0.06256109
0.74909423 0.49187236 0.06256109
0.78076613 0.48820216 0.06256109
0.81233347 0.48314396 0.06256109
0.84382234 0.47606530 0.06256109
0.87525228 0.46593098 0.06256109
0.90663787 0.45089623 0.06256109
0.93799008 0.42720396 0.06256109
0.96931716 0.38516383 0.06256109
1.00062529 0.28062000 0.06256109
0.06256109 0.53375797 0.06256109
0.06256109 0.53374908 0.06256109
0.06256109 0.53374019 0.06256109
0.06256109 0.53373130 0.06256109
0.06256109 0.53372240 0.06256109
0.06256109 0.53371351 0.06256109
0.06256109 0.53370239 0.06256109
0.06256109 0.53368678 0.06256109
0.06256109 0.53366609 0.06256109
0.06256109 0.53363867 0.06256109
0.06256109 0.53360232 0.06256109
0.17252460 0.53355415 0.06256109
0.27562056 0.53349027 0.06256109
0.34097128 0.53340557 0.06256109
0.39242359 0.53329324 0.06256109
0.43680451 0.53314421 0.06256109
0.47702761 0.53294643 0.06256109
0.51459930 0.53268380 0.06256109
0.55039247 0.53233482 0.06256109
0.58495196 0.53187069 0.06256109
0.61863576 0.53125267 0.06256109
0.65168774 0.53042838 0.06256109
0.68427851 0.52932660 0.06256109
0.71652971 0.52784956 0.06256109
0.74852934 0.52586156 0.06256109
0.78034172 0.52317117 0.06256109
0.81201425 0.51950262 0.06256109
0.84358205 0.51444677 0.06256109
0.87507128 0.50737158 0.06256109
0.90650147 0.49724264 0.06256109
0.93788726 0.48221682 0.06256109
0.96923963 0.45854135 0.06256109
1.00056682 0.41654142 0.06256109
0.06256109 0.56503958 0.06256109
0.06256109 0.56503287 0.06256109
0.06256109 0.56502617 0.06256109
0.06256109 0.56501946 0.06256109
0.06256109 0.56501275 0.06256109
0.06256109 0.56500605 0.06256109
0.06256109 0.56499765 0.06256109
0.06256109 0.56498588 0.06256109
0.06256109 0.56497027 0.06256109
0.06256109 0.56494959 0.06256109
0.06256109 0.56492218 0.06256109
0.06256109 0.56488585 0.06256109
0.20332218 0.56483768 0.06256109
0.30669204 0.56477383 0.06256109
0.37212222 0.56468916 0.06256109
0.42361128 0.56457686 0.06256109
0.46801274 0.56442787 0.06256109
0.50824853 0.56423015 0.06256109
0.54582858 0.56396760 0.06256109
0.58162746 0.56361873 0.06256109
0.61619097 0.56315474 0.06256109
0.64987764 0.56253690 0.06256109
0.68293171 0.56171287 0.06256109
0.71552401 0.56061143 0.06256109
0.74777635 0.55913487 0.06256109
0.77977682 0.55714750 0.06256109
0.81158983 0.55445800 0.06256109
0.84326283 0.55079068 0.06256109
0.87483098 0.54573660 0.06256109
0.90632047 0.53866403 0.06256109
0.93775086 0.52853914 0.06256109
0.96913680 0.51352007 0.06256109
1.00048928 0.48985725 0.06256109
0.06256109 0.59631343 0.06256109
0.06256109 0.59630837 0.06256109
0.06256109 0.59630331 0.06256109
0.06256109 0.59629825 0.06256109
0.06256109 0.59629319 0.06256109
0.06256109 0.59628813 0.06256109
0.06256109 0.59628180 0.06256109
0.06256109 0.59627292 0.06256109
0.06256109 0.59626114 0.06256109
0.06256109 0.59624554 0.06256109
0.06256109 0.59622487 0.06256109
0.06256109 0.59619746 0.06256109
0.06256109 0.59616114 0.06256109
0.23422953 0.59611298 0.06256109
0.33780712 0.59604914 0.06256109
0.40329741 0.59596449 0.06256109
0.45481424 0.59585222 0.06256109
0.49923120 0.59570327 0.06256109
0.53947659 0.59550559 0.06256109
0.57706294 0.59524310 0.06256109
0.61286613 0.59489431 0.06256109
0.64743267 0.59443043 0.06256109
0.68112151 0.59381274 0.06256109
0.71417716 0.59298890 0.06256109
0.74677062 0.59188772 0.06256109
0.77902382 0.59041150 0.06256109
0.81102492 0.58842462 0.06256109
0.84283841 0.58573578 0.06256109
0.87451175 0.58206939 0.06256109
0.90608017 0.57701665 0.06256109
0.93756986 0.56994606 0.06256109
0.96900041 0.55982423 0.06256109
1.00038646 0.54481024 0.06256109
0.06256109 0.62758143 0.06256109
0.06256109 0.62757761 0.06256109
0.06256109 0.62757380 0.06256109
0.06256109 0.62756998 0.06256109
0.06256109 0.62756616 0.06256109
0.06256109 0.62756234 0.06256109
0.06256109 0.62755756 0.06256109
0.06256109 0.62755086 0.06256109
0.06256109 0.62754198 0.06256109
0.06256109 0.62753021 0.06256109
0.06256109 0.62751461 0.06256109
0.06256109 0.62749394 0.06256109
0.06256109 0.62746654 0.06256109
0.06256109 0.62743022 0.06256109
0.26522025 0.62738207 0.06256109
0.36895520 0.62731824 0.06256109
0.43449092 0.62723361 0.06256109
0.48602873 0.62712135 0.06256109
0.53045740 0.62697243 0.06256109
0.57071003 0.62677478 0.06256109
0.60830113 0.62651234 0.06256109
0.64410758 0.62616361 0.06256109
0.67867641 0.62569981 0.06256109
0.71236689 0.62508222 0.06256109
0.74542373 0.62425853 0.06256109
0.77801806 0.62315755 0.06256109
0.81027190 0.62168160 0.06256109
0.84227349 0.61969507 0.06256109
0.87408733 0.61700674 0.06256109
0.90576094 0.61334105 0.06256109
0.93732956 0.60828932 0.06256109
0.96881940 0.60122022 0.06256109
1.00025006 0.59110070 0.06256109
0.06256109 0.65884501 0.06256109
0.06256109 0.65884213 0.06256109
0.06256109 0.65883925 0.06256109
0.06256109 0.65883637 0.06256109
0.06256109 0.65883349 0.06256109
0.06256109 0.65883061 0.06256109
0.06256109 0.65882700 0.06256109
0.06256109 0.65882194 0.06256109
0.06256109 0.65881524 0.06256109
0.06256109 0.65880636 0.06256109
0.06256109 0.65879459 0.06256109
0.06256109 0.65877900 0.06256109
0.06256109 0.65875833 0.06256109
0.06256109 0.65873093 0.06256109
0.06256109 0.65869462 0.06256109
0.29627418 0.65864648 0.06256109
0.40012822 0.65858266 0.06256109
0.46569827 0.65849803 0.06256109
0.51725192 0.65838579 0.06256109
0.56168944 0.65823689 0.06256109
0.60194752 0.65803927 0.06256109
0.63954222 0.65777685 0.06256109
0.67535112 0.65742817 0.06256109
0.70992168 0.65696443 0.06256109
0.74361340 0.65634693 0.06256109
0.77667114 0.65552335 0.06256109
0.80926613 0.65442251 0.06256109
